source/img/facebook.svg

<svg width="17" height="17" viewBox="0 0 17 17" fill="none" xmlns="http://www.w3.org/2000/svg">
<path d="M14.5098 0H2.49023C1.11723 0 0 1.11723 0 2.49023V14.5098C0 15.8828 1.11723 17 2.49023 17H7.50391V10.9902H5.51172V8.00195H7.50391V5.97656C7.50391 4.32873 8.84435 2.98828 10.4922 2.98828H13.5137V5.97656H10.4922V8.00195H13.5137L13.0156 10.9902H10.4922V17H14.5098C15.8828 17 17 15.8828 17 14.5098V2.49023C17 1.11723 15.8828 0 14.5098 0Z" fill="white"/>
</svg>

<svg width="17" height="17" fill="none" xmlns="http://www.w3.org/2000/svg"><path d="M14.51 0H2.49A2.493 2.493 0 0 0 0 2.49v12.02A2.493 2.493 0 0 0 2.49 17h5.014v-6.01H5.512V8.002h1.992V5.977a2.992 2.992 0 0 1 2.988-2.989h3.022v2.989h-3.022v2.025h3.022l-.498 2.988h-2.524V17h4.018A2.493 2.493 0 0 0 17 14.51V2.49A2.493 2.493 0 0 0 14.51 0z" fill="#fff"/></svg>
